X: 5884
T: Calum's Road
R: strathspey
M: 4/4
K: Dmajor
|:D2A>F A4|B<dd>c B>AF<A|B2 d>E F2 E>D|B<D (3DEF E4|
D2A>F A4|B<dd>c B>AF<A|B2 d>E F2 E>D|1 B<D D>E D4:|2 B<D D>E D2F>A||
|:B2d>c B4|A>BA<E F2F>A|B2d>c B3A|d2d>e (3fed (3dBA|
B2d>c B4|A>BA<E F2F>A|B2 d>E F2 E>D|B<D D>E D4:|

